icons/filled/coin-monero.svg

<svg xmlns="http://www.w3.org/2000/svg" width="24" height="24" viewBox="0 0 24 24" fill="currentColor"><path d="M15 11.414v4.586a1 1 0 0 0 1 1l4.66 .001a10 10 0 0 1 -17.32 0l4.66 -.001l.117 -.007a1 1 0 0 0 .883 -.993v-4.585l2.293 2.292l.094 .083a1 1 0 0 0 1.32 -.083l2.293 -2.293zm2 -8.074a10 10 0 0 1 4.54 11.66h-4.54v-6c0 -.89 -1.077 -1.337 -1.707 -.707l-3.293 3.292l-3.293 -3.292l-.084 -.076c-.637 -.514 -1.623 -.07 -1.623 .783v6h-4.54a9.991 9.991 0 0 1 -.46 -3l.005 -.324a10 10 0 0 1 14.995 -8.336z"/></svg>

<svg xmlns="http://www.w3.org/2000/svg" width="24" height="24" fill="currentColor"><path d="M15 11.414V16a1 1 0 0 0 1 1l4.66.001a10 10 0 0 1-17.32 0L8 17l.117-.007A1 1 0 0 0 9 16v-4.585l2.293 2.292.094.083a1 1 0 0 0 1.32-.083zm2-8.074A10 10 0 0 1 21.54 15H17V9c0-.89-1.077-1.337-1.707-.707L12 11.585 8.707 8.293l-.084-.076C7.986 7.703 7 8.147 7 9v6H2.46A10 10 0 0 1 2 12l.005-.324A10 10 0 0 1 17 3.34"/></svg>
